packages/icons/svg/24/FormatFontFamily.svg

<svg width="24" height="24" viewBox="0 0 24 24" fill="none" xmlns="http://www.w3.org/2000/svg">
<path d="M19.0589 20V11.7256H22V10H14V11.7256H16.934V20H19.0589Z" fill="#858585"/>
<path d="M7.44567 16.5814C7.44567 18.7442 7.31339 18.9535 6.32126 19.0698L5.32913 19.186C5.15276 19.3256 5.15276 19.8605 5.32913 20C6.87244 19.9535 8.0189 19.9302 9.07717 19.9302C10.0693 19.9302 11.1717 19.9535 12.6047 20C12.7591 19.8605 12.7591 19.3256 12.6047 19.186L11.7228 19.0698C10.7307 18.9302 10.5984 18.7442 10.5984 16.5814V6.32558C10.5984 5.72093 10.6646 5.65116 11.1937 5.65116H12.5165C14.1701 5.65116 14.4787 6.74419 14.8535 8.23256C14.9638 8.4186 15.5591 8.37209 15.6693 8.16279C15.6252 6.83721 15.7795 4.95349 16 4.16279C15.9559 4.09302 15.8016 4 15.6693 4C15.537 4 15.4709 4.02326 15.3827 4.06977C15.1843 4.55814 14.8535 4.5814 13.3984 4.5814H5.19685C3.52126 4.5814 3.45512 4.48837 3.34488 4.09302C3.25669 4.02326 3.14646 4 3.03622 4C2.92598 4 2.81575 4.04651 2.72756 4.11628C2.57323 5.02326 2.46299 6.46512 2 8.06977C2.13228 8.37209 2.55118 8.4186 2.81575 8.27907C3.47717 6.5814 3.94016 5.65116 5.54961 5.65116H6.91654C7.44567 5.65116 7.44567 5.76744 7.44567 6.32558V16.5814Z" fill="#858585"/>
</svg>

<svg width="24" height="24" fill="none" xmlns="http://www.w3.org/2000/svg" viewBox="0 0 24 24"><path d="M19.059 20v-8.274H22V10h-8v1.726h2.934V20h2.125z" fill="currentColor"></path><path d="M7.446 16.581c0 2.163-.133 2.372-1.125 2.489l-.992.116c-.176.14-.176.674 0 .814 1.543-.047 2.69-.07 3.748-.07.992 0 2.095.023 3.528.07.154-.14.154-.674 0-.814l-.882-.116c-.992-.14-1.125-.326-1.125-2.489V6.326c0-.605.067-.675.596-.675h1.322c1.654 0 1.963 1.093 2.338 2.582.11.186.705.14.815-.07-.044-1.326.11-3.21.331-4A.461.461 0 0015.67 4a.529.529 0 00-.287.07c-.199.488-.53.511-1.985.511H5.197c-1.676 0-1.742-.093-1.852-.488a.51.51 0 00-.617.023c-.155.907-.265 2.35-.728 3.954.132.302.551.349.816.21C3.477 6.58 3.94 5.65 5.55 5.65h1.367c.529 0 .529.116.529.675V16.58z" fill="currentColor"></path></svg>
